X:1
T:Title
%%score ( 1 2 ) { 3 | 4 }
L:1/8
Q:1/4=115
M:4/4
K:G
V:1 treble nm="Grand Piano, The Prince of Peace"
V:2 treble 
V:3 treble nm="Choir Pad, Staff 2"
V:4 bass 
V:1
 [Fd]4 [G^c]2 [A=c]2 | [GB]3 [FA] G2 [GB]2 | [Ad]2 [Bd]2 [Ae]2 [Ge]2 | [Fd]6 [Fc]2 | %4
w: By~Cyril~Barker * *||||
 [^DB]3 [DB] [E_B]2 [FA]2 | [EG]2 [FA]2 [FB]2 [^DA]2 | [EG]4 [DF]4 | [B,E]6 [CD]2 | %8
w: ||||
 [CE]3 [DF] [DG]2 [EA]2 | [DB]2 [DG]2 [Ge]2 [Fd]2 | [Ec]4 B2- [GB]2 | [FA]4 [Fd]4 | %12
w: ||||
 [Fd]3 [Fd] [G^c]2 [A=c]2 | [GB]2 GA [FB]2 [Ec]2 | [GB]4 [FA]4 | G8 |] %16
w: ||||
V:2
 x8 | x8 | x8 | x8 | x8 | x8 | x8 | x8 | x8 | x8 | z4 D2 z2 | x8 | x8 | x8 | x8 | x8 |] %16
V:3
 A,4 A,2 D2 | D3 D D2 D2 | D2 B,2 C2 C2 | C6[K:bass] A,2 | B,3 F, F,2 B,2 | B,2 C2 B,2 B,2 | %6
 B,4 A,4 | G,6 A,2 | G,3 A, B,2 C2 | B,2 B,2 C2 A,2 | G,2 A,2 B,2 ^C2 | D4 A,4 | %12
 A,3 A, A,2[K:treble] D2 | D2 B,C D2 E2 | D4 D2 C2 | B,8 |] %16
V:4
 D,4 E,2 F,2 | G,3 A, B,2 G,2 | F,2 G,2 F,2 C,2 | D,6 D,2 | B,,3 B,, ^C,2 ^D,2 | E,2 D,2 ^D,2 F,2 | %6
 B,,4 D,4 | E,6 F,2 | C,3 C, B,,2 A,,2 | G,,2 G,2 C,2 D,2 | E,2 F,2 G,2 A,,2 | D,4 D,4 | %12
 D,3 D, E,2 F,2 | G,2 D,2 B,,2 A,,2 | D,4 D,4 | G,8 |] %16

